actions/22/text-frame-link.svg

<svg xmlns="http://www.w3.org/2000/svg" viewBox="0 0 22 22">
  <defs id="defs3051">
<style type="text/css" id="current-color-scheme">.ColorScheme-Text {color:#fcfcfc;}</style>
  </defs>
 <path 
     style="fill:currentColor;fill-opacity:1;stroke:none" 
     d="m 3,6 c 0,3 0,7 0,10 0,3 3,3 3,3 h 4 V 18 H 6 C 6,18 4,18 4,16 4,14 4,8 4,6 4,4 6,4 6,4 h 4 V 3 H 6 C 6,3 3,3 3,6 Z M 13,3 v 1 h 3 c 0,0 2,0 2,2 0,2 0,8 0,10 0,2 -2,2 -2,2 h -3 v 1 h 3 c 0,0 3,0 3,-3 0,-3 0,-7 0,-10 0,-3 -3,-3 -3,-3 z m 0,15 V 4 H 12 V 18 Z M 5,5 V 6 H 8 V 5 Z M 5,7 V 8 H 8 V 7 Z m 0,2 v 1 H 8 V 9 Z m 4,0 v 4 l 2,-2 z m -4,2 v 1 h 2 v -1 z"
	 class="ColorScheme-Text"
     />
</svg>

<svg xmlns="http://www.w3.org/2000/svg" viewBox="0 0 22 22">
  <defs id="defs3051">
    <style type="text/css" id="current-color-scheme">
      .ColorScheme-Text {
        color:#eff0f1;
      }
      </style>
  </defs>
 <path 
     style="fill:currentColor;fill-opacity:1;stroke:none" 
     d="M 3 3 L 3 4 L 3 19 L 4 19 L 10 19 L 10 18 L 4 18 L 4 4 L 10 4 L 10 3 L 4 3 L 3 3 z M 13 3 L 13 4 L 18 4 L 18 18 L 13 18 L 13 19 L 19 19 L 19 18 L 19 3 L 13 3 z M 13 18 L 13 4 L 12 4 L 12 18 L 13 18 z M 5 5 L 5 6 L 8 6 L 8 5 L 5 5 z M 5 7 L 5 8 L 8 8 L 8 7 L 5 7 z M 5 9 L 5 10 L 8 10 L 8 9 L 5 9 z M 9 9 L 9 13 L 11 11 L 9 9 z M 5 11 L 5 12 L 7 12 L 7 11 L 5 11 z "
	 class="ColorScheme-Text"
     />
</svg>
